X: 37083
T: Miss Christie of Durrie
C:J. Walker (Glen Coll.)
Z:Anselm Lingnau <anselm@strathspey.org>
B:RSCDS 37-8
M:C|
L:1/8
K:C
B | "C"c2Bc GcBc | "Dm"defd "G"cBAG | "C"c2Bc "Dm"defd | "G"ecdB "C"c2 c :|
f | "C"g2eg "Dm"f2df | afed "G"cBAG | "C"c2Bc "Dm"defd | "G"ecdB "C"c2 c ||
f | "C"g2eg "Dm"f2df | afed "G"cBAG | "C"ce"G7"df "C"eg"F"fa | "G7"gefd "C"c2c |]
%%center Book37/37082-Miss_Christie_of_Durrie-AL.abc

%%sep 1 1 500
%%sep 1 1 500

